X: 446
T: Spatter the dew
C:anon.
O:Ireland
B:Francis O'Neill: "The Dance Music of Ireland" (1907) no. 446
R:Hop, Slip jig
Z:Transcribed by Frank Nordberg - http://www.musicaviva.com
F:http://www.musicaviva.com/abc/tunes/ireland/oneill-1001/oneill-1001-044
6.abc
m:Tn2 = (3n/o/n/ m/n/
M:9/8
L:1/8
K:Em
EFE E2F G2F|EFE E2B AFD|EFE E2F G2B|AFA dAG FED:|E2B- TB2F G2F|E2B- TB2G
AFD|
E2B- TB2F G2B|AFA dAG FED|E2B- TB2F G2F|E2B- TB2G  AFD|E2B AB^c dcB|AFA d
AG FED||B2e (e/f/ed)e2d|
B2e- e2a fdB|A2d- d2^c d2B|A2e d2B AFD|B2e (e/f/ed) e2d|B2e- e2a fdB|fga
efg d2A|B2^c A2G FED||
BdB ABA TG2F|EFE TE2B AFD|BdB ABA TG2B|AFA dAG FED|BdB ABA TG2F|EFE TG2F
AFD|B^cd ABc dcB|AFA dAG FED|]
W:
W:
W:  From Musica Viva - http://www.musicaviva.com
W:  the Internet center for free sheet music downloads.


